imgs/header-shape.svg

<svg width="1138" height="1145" viewBox="0 0 1138 1145" fill="none" xmlns="http://www.w3.org/2000/svg">
<path fill-rule="evenodd" clip-rule="evenodd" d="M594.49 996.878C664.366 972.279 740.555 979.883 806 945.172C879.283 906.305 944.228 854.929 991.133 786.508C1047.41 704.41 1118.21 613.237 1100.73 515.244C1083.24 417.189 970.313 372.767 904.06 298.397C833.423 219.105 795.785 105.937 698.395 63.613C595.125 18.7338 474.1 29.0947 367.444 65.1936C259.45 101.745 135.496 158.186 99.4157 266.344C62.6644 376.514 198.952 479.458 190.607 595.296C182.38 709.508 31.9891 790.243 53.5755 902.698C74.5474 1011.95 182.877 1106.87 292.47 1125.95C402.558 1145.12 489.086 1033.98 594.49 996.878Z" fill="white"/>
</svg>

<svg width="1138" height="1145" fill="none" xmlns="http://www.w3.org/2000/svg"><path fill-rule="evenodd" clip-rule="evenodd" d="M594.49 996.878c69.876-24.599 146.065-16.995 211.51-51.706 73.283-38.867 138.228-90.243 185.133-158.664 56.277-82.098 127.077-173.271 109.597-271.264-17.49-98.055-130.417-142.477-196.67-216.847-70.637-79.292-108.275-192.46-205.665-234.784-103.27-44.88-224.295-34.518-330.951 1.58-107.994 36.552-231.948 92.993-268.028 201.151-36.752 110.17 99.536 213.114 91.191 328.952C182.38 709.508 31.989 790.243 53.576 902.698c20.971 109.252 129.3 204.172 238.894 223.252 110.088 19.17 196.616-91.97 302.02-129.072z" fill="#fff"/></svg>
